dist/img/logo.svg

<?xml version="1.0" encoding="utf-8"?>
<!-- Generator: Adobe Illustrator 23.0.1, SVG Export Plug-In . SVG Version: 6.00 Build 0)  -->
<svg version="1.1" id="Layer_1" xmlns="http://www.w3.org/2000/svg" xmlns:xlink="http://www.w3.org/1999/xlink" x="0px" y="0px"
	 viewBox="0 0 764.41 502.94" style="enable-background:new 0 0 764.41 502.94;" xml:space="preserve">
<style type="text/css">
	.st0{fill:url(#SVGID_1_);}
	.st1{fill:url(#SVGID_2_);}
	.st2{fill:url(#SVGID_3_);}
	.st3{fill:#333333;}
	.st4{fill:url(#SVGID_4_);}
	.st5{fill:url(#SVGID_5_);}
	.st6{fill:#191919;}
	.st7{fill:url(#SVGID_6_);}
</style>
<g>
	<g>
		<linearGradient id="SVGID_1_" gradientUnits="userSpaceOnUse" x1="0" y1="442.7689" x2="94.684" y2="442.7689">
			<stop  offset="0" style="stop-color:#C4922C"/>
			<stop  offset="1" style="stop-color:#D3A657"/>
		</linearGradient>
		<path class="st0" d="M36.5,404.96H0v-19.73c33.21,0,61.32,0,94.68,0v19.73H58.2v95.34H36.5V404.96z"/>
		<linearGradient id="SVGID_2_" gradientUnits="userSpaceOnUse" x1="96.0626" y1="442.7689" x2="222.9638" y2="442.7689">
			<stop  offset="0" style="stop-color:#C4922C"/>
			<stop  offset="1" style="stop-color:#D3A657"/>
		</linearGradient>
		<path class="st1" d="M189.6,478.61h-60.16l-9.86,21.7h-23.5l51.61-115.07h23.66l51.63,115.07h-23.68L189.6,478.61z M159.51,409.39
			l-21.36,48.99h42.74L159.51,409.39z"/>
		<linearGradient id="SVGID_3_" gradientUnits="userSpaceOnUse" x1="223.0307" y1="442.4409" x2="329.7075" y2="442.4409">
			<stop  offset="0" style="stop-color:#C4922C"/>
			<stop  offset="1" style="stop-color:#D3A657"/>
		</linearGradient>
		<path class="st2" d="M313.11,413.34c-7.72-7.39-19.23-11.5-29.26-11.5c-24.65,0-39.62,18.74-39.62,42.4
			c0,18.9,11.02,38.47,39.62,38.47c9.03,0,16.93-1.97,25.97-9.21v-20.39H280.4v-19.39h49.31v48.49
			c-11.34,12.98-25.63,20.72-45.86,20.72c-43.23,0-60.82-28.44-60.82-58.69c0-32.38,20.22-62.31,60.82-62.31
			c15.45,0,30.91,5.93,42.74,17.6L313.11,413.34z"/>
		<path class="st3" d="M382.7,393.29h-41.59v-7.9h92.05v7.9h-41.59V500.3h-8.87V393.29z"/>
		<path class="st3" d="M450.14,500.3V385.23h8.71V500.3H450.14z"/>
		<path class="st3" d="M493.07,385.23v106.69h64.77v8.38h-73.64V385.23H493.07z"/>
		<path class="st3" d="M753.72,407.43c-8.39-13.48-21.87-15.45-34.85-15.62c-13.48,0-34.85,4.94-34.85,23.34
			c0,14.63,15.78,18.08,35.19,21.7c22.19,4.28,45.2,8.22,45.2,33.05c-0.16,25.97-26.3,32.22-45.54,32.22
			c-17.92,0-38.29-7.4-47.18-24.99l7.9-3.94c7.07,13.96,25.15,20.87,39.28,20.87s36.66-3.94,36.66-24.32
			c0.16-17.27-18.91-21.04-37.81-24.67c-21.04-4.11-42.58-8.38-42.58-29.58c-0.5-24.33,24.83-31.9,43.73-31.9
			c16.44,0,30.74,2.64,42.08,19.57L753.72,407.43z"/>
		<linearGradient id="SVGID_4_" gradientUnits="userSpaceOnUse" x1="560.9431" y1="389.4238" x2="654.0477" y2="389.4238">
			<stop  offset="0" style="stop-color:#C4922C"/>
			<stop  offset="1" style="stop-color:#D3A657"/>
		</linearGradient>
		<polygon class="st4" points="594.04,393.61 654.05,393.61 654.05,385.23 560.94,385.23 574.65,393.61 583.36,393.61 		"/>
		<polygon class="st3" points="583.36,491.75 583.36,446.39 650.76,446.39 650.76,438.33 594.04,438.33 594.04,438.34 
			574.65,438.34 574.65,500.3 656.02,500.3 656.02,491.75 		"/>
	</g>
	<g>
		<g>
			<linearGradient id="SVGID_5_" gradientUnits="userSpaceOnUse" x1="245.5185" y1="196.5322" x2="485.3431" y2="196.5322">
				<stop  offset="0" style="stop-color:#C4922C"/>
				<stop  offset="1" style="stop-color:#D3A657"/>
			</linearGradient>
			<path class="st5" d="M261.58,243.32L261.58,243.32l70.01-70.01l100.75,100.75c14.64,14.64,38.37,14.64,53.01,0v0L358.09,146.8
				l-38.77-38.77l-26.5,26.5l-31.25,31.25C240.17,187.2,240.17,221.91,261.58,243.32z"/>
			<path class="st6" d="M350.81,76.56l-26.5,26.5l38.77,38.77l100.75,100.75c14.64,14.64,38.37,14.64,53.01,0v0L389.57,115.32
				l37.79-37.79c21.41-21.41,21.41-56.12,0-77.53l0,0L350.81,76.56z"/>
			<linearGradient id="SVGID_6_" gradientUnits="userSpaceOnUse" x1="409.3543" y1="115.9856" x2="450.7475" y2="115.9856">
				<stop  offset="0" style="stop-color:#C4922C"/>
				<stop  offset="1" style="stop-color:#D3A657"/>
			</linearGradient>
			<polygon class="st7" points="450.75,115.99 430.05,136.68 409.35,115.99 430.05,95.29 			"/>
			
				<rect x="443.78" y="129.71" transform="matrix(0.7071 -0.7071 0.7071 0.7071 32.1969 366.4253)" class="st6" width="29.27" height="29.27"/>
			
				<rect x="443.47" y="73.3" transform="matrix(0.7071 -0.7071 0.7071 0.7071 72.0002 349.6842)" class="st6" width="29.27" height="29.27"/>
		</g>
		<path class="st6" d="M419.03,267.75H272.43c-7.29,0-13.22-5.93-13.22-13.22v-6.57l-1.14-1.14c-5.18-5.18-9.21-11.09-12.08-17.4
			v25.1c0,14.58,11.86,26.45,26.45,26.45H432.7c-1.35-1.06-2.64-2.19-3.87-3.42L419.03,267.75z"/>
		<path class="st6" d="M492.44,267.75h-6.38l6.3,6.3l-3.51,3.51c-1.23,1.23-2.53,2.36-3.87,3.42h7.46
			c14.58,0,26.45-11.86,26.45-26.45v-7.08c-3.93,3.59-8.43,6.35-13.28,8.22C505.02,262.43,499.35,267.75,492.44,267.75z"/>
		<path class="st6" d="M492.44,21.3c7.29,0,13.22,5.93,13.22,13.22V224.4l13.22,13.22V34.52c0-14.58-11.86-26.45-26.45-26.45h-52.51
			c2.5,4.16,4.46,8.59,5.87,13.22H492.44z"/>
		<path class="st6" d="M259.21,161.14V34.52c0-7.29,5.93-13.22,13.22-13.22h126.62l13.22-13.22H272.43
			c-14.58,0-26.45,11.86-26.45,26.45v145.15c2.88-6.31,6.9-12.21,12.08-17.4L259.21,161.14z"/>
	</g>
</g>
</svg>

<svg id="Layer_1" data-name="Layer 1" xmlns="http://www.w3.org/2000/svg" viewBox="0 0 764.41 502.93"><defs><style>.cls-1{fill:#e0bf74;}.cls-2{fill:#fff;}</style></defs><title>logo</title><path class="cls-1" d="M36.5,405H0V385.23H94.68V405H58.2V500.3H36.5Z"/><path class="cls-1" d="M189.6,478.61H129.44l-9.86,21.7H96.08l51.61-115.07h23.66L223,500.31H199.3Zm-30.09-69.22-21.36,49h42.74Z"/><path class="cls-1" d="M313.11,413.34c-7.72-7.39-19.23-11.5-29.26-11.5-24.65,0-39.62,18.74-39.62,42.4,0,18.9,11,38.47,39.62,38.47,9,0,16.93-2,26-9.21V453.11H280.4V433.72h49.31v48.49c-11.34,13-25.63,20.72-45.86,20.72-43.23,0-60.82-28.44-60.82-58.69,0-32.38,20.22-62.31,60.82-62.31a60.79,60.79,0,0,1,42.74,17.6Z"/><path class="cls-2" d="M382.7,393.29H341.11v-7.9h92.05v7.9H391.57v107H382.7v-107Z"/><path class="cls-2" d="M450.14,500.3V385.23h8.71V500.3Z"/><path class="cls-2" d="M493.07,385.23V491.92h64.77v8.38H484.2V385.23Z"/><path class="cls-2" d="M753.72,407.43C745.33,394,731.85,392,718.87,391.81c-13.48,0-34.85,4.94-34.85,23.34,0,14.63,15.78,18.08,35.19,21.7,22.19,4.28,45.2,8.22,45.2,33-.16,26-26.3,32.22-45.54,32.22-17.92,0-38.29-7.4-47.18-25l7.9-3.94c7.07,14,25.15,20.87,39.28,20.87s36.66-3.94,36.66-24.32c.16-17.27-18.91-21-37.81-24.67-21-4.11-42.58-8.38-42.58-29.58-.5-24.33,24.83-31.9,43.73-31.9,16.44,0,30.74,2.64,42.08,19.57Z"/><polygon class="cls-1" points="594.04 393.61 654.05 393.61 654.05 385.23 560.94 385.23 574.65 393.61 583.36 393.61 594.04 393.61"/><polygon class="cls-2" points="583.36 491.75 583.36 446.39 650.76 446.39 650.76 438.33 594.04 438.33 594.04 438.34 574.65 438.34 574.65 500.3 656.02 500.3 656.02 491.75 583.36 491.75"/><path class="cls-1" d="M261.58,243.32h0l70-70L432.34,274.06a37.48,37.48,0,0,0,53,0h0L358.09,146.8,319.32,108l-26.5,26.5-31.25,31.25A54.84,54.84,0,0,0,261.58,243.32Z"/><path class="cls-2" d="M350.81,76.56l-26.5,26.5,38.77,38.77L463.83,242.58a37.48,37.48,0,0,0,53,0h0L389.57,115.32l37.79-37.79a54.82,54.82,0,0,0,0-77.53h0Z"/><polygon class="cls-1" points="450.75 115.99 430.05 136.68 409.35 115.99 430.05 95.29 450.75 115.99"/><rect class="cls-2" x="443.77" y="129.71" width="29.27" height="29.27" transform="translate(32.2 366.42) rotate(-45)"/><rect class="cls-2" x="443.47" y="73.3" width="29.27" height="29.27" transform="translate(72 349.69) rotate(-45)"/><path class="cls-2" d="M419,267.75H272.43a13.23,13.23,0,0,1-13.22-13.22V248l-1.14-1.14A59.3,59.3,0,0,1,246,229.42v25.1A26.48,26.48,0,0,0,272.44,281H432.7a43,43,0,0,1-3.87-3.42Z"/><path class="cls-2" d="M492.44,267.75h-6.38l6.3,6.3-3.51,3.51A44.44,44.44,0,0,1,485,281h7.46a26.48,26.48,0,0,0,26.45-26.45v-7.08a42.13,42.13,0,0,1-13.28,8.22A13.24,13.24,0,0,1,492.44,267.75Z"/><path class="cls-2" d="M492.44,21.3a13.23,13.23,0,0,1,13.22,13.22V224.4l13.22,13.22V34.52A26.48,26.48,0,0,0,492.43,8.07H439.92a59,59,0,0,1,5.87,13.22h46.65Z"/><path class="cls-2" d="M259.21,161.14V34.52A13.23,13.23,0,0,1,272.43,21.3H399.05L412.27,8.08H272.43A26.48,26.48,0,0,0,246,34.53V179.68a59.62,59.62,0,0,1,12.08-17.4Z"/></svg>
